static/images/security/security-content-img-2.svg

<svg width="486" height="523" fill="none" xmlns="http://www.w3.org/2000/svg"><g filter="url(#a)"><path d="M261.35 442.512a167.304 167.304 0 0 0 103.945-274.053 167.303 167.303 0 0 0-101.724-56.909l-3.193 20.532a146.522 146.522 0 0 1 87.806 241.217 146.517 146.517 0 0 1-89.751 48.64l2.917 20.573Z" fill="#E2E4F1"/></g><g filter="url(#b)"><circle cx="246.249" cy="269.514" r="100.288" fill="#fff"/></g><g filter="url(#c)"><circle cx="132.288" cy="132.288" r="100.288" fill="#fff"/></g><path d="M132.5 193C99.15 193 72 165.872 72 132.5 72 99.15 99.128 72 132.5 72c33.35 0 60.5 27.15 60.5 60.5 0 33.372-27.15 60.5-60.5 60.5Zm0-119.769c-32.69 0-59.269 26.6-59.269 59.269 0 32.69 26.6 59.269 59.269 59.269 32.69 0 59.269-26.601 59.269-59.269 0-32.69-26.579-59.269-59.269-59.269Z" fill="#E2E4F1"/><path d="M120.868 147.647h23.259a1.914 1.914 0 0 0 1.913-1.912v-18.687a1.914 1.914 0 0 0-1.913-1.912h-17.609v-1.979c0-3.122 2.638-5.65 5.87-5.65 2.572 0 4.88 1.649 5.628 4.023.132.44.461.77.879.946.418.154.901.132 1.275-.088l.77-.44a1.488 1.488 0 0 0 .659-1.759c-1.319-3.869-5.034-6.485-9.211-6.485-5.364 0-9.717 4.243-9.717 9.475v1.979h-1.825a1.913 1.913 0 0 0-1.912 1.912v18.687a1.942 1.942 0 0 0 1.934 1.89Zm9.717-14.113a1.914 1.914 0 0 1 3.825 0v5.694a1.913 1.913 0 0 1-3.825 0v-5.694Z" fill="url(#d)"/><path d="M161.034 104.185a2.19 2.19 0 0 0-.681-.418l-1.099-.44a73.187 73.187 0 0 0-53.488 0l-.263.11c-1.957.77-3.21 2.594-3.21 4.705v41.484a4.59 4.59 0 0 0 2.088 3.869l25.656 17.038a4.379 4.379 0 0 0 2.462.747c.857 0 1.715-.242 2.462-.747l25.568-16.994a4.784 4.784 0 0 0 2.154-4.023v-43.177a2.156 2.156 0 0 0-1.649-2.154Zm-54.3 3.803c0-.176.11-.33.264-.396a70.088 70.088 0 0 1 25.501-4.814c8.64 0 17.279 1.605 25.501 4.814l.264.11v41.792c0 .154-.066.286-.198.352l-25.347 16.839a.477.477 0 0 1-.484 0l-25.347-16.839c-.11-.088-.198-.22-.198-.352v-41.506h.044Z" fill="url(#e)"/><path d="M246.105 329.21c-34.239 0-62.105-27.865-62.105-62.105C184 232.866 211.866 205 246.105 205s62.105 27.866 62.105 62.105c0 34.263-27.866 62.105-62.105 62.105Zm0-122.921c-33.549 0-60.839 27.29-60.839 60.839s27.29 60.84 60.839 60.84 60.839-27.291 60.839-60.84c-.023-33.549-27.313-60.839-60.839-60.839Z" fill="#E2E4F1"/><path d="M253.307 267.933h-2.508c-.276 0-.392-.276-.415-.368a21.361 21.361 0 0 0-.989-2.37c-.092-.161-.069-.368.023-.46l1.818-1.818a3.57 3.57 0 0 0 1.058-2.554c0-.967-.368-1.887-1.058-2.555l-3.935-3.934a3.599 3.599 0 0 0-2.554-1.036c-.967 0-1.887.368-2.554 1.036l-1.841 1.84c-.161.161-.391.046-.46.023a20.154 20.154 0 0 0-2.393-.989c-.092-.023-.346-.138-.346-.391v-2.577a3.618 3.618 0 0 0-3.612-3.613h-5.569a3.618 3.618 0 0 0-3.612 3.613v2.577c0 .253-.253.368-.345.391-.806.276-1.611.621-2.371.989-.069.023-.299.138-.46-.023l-1.841-1.84a3.597 3.597 0 0 0-2.554-1.036c-.966 0-1.887.391-2.554 1.036l-3.935 3.934a3.627 3.627 0 0 0 0 5.109l1.818 1.818c.092.092.115.276.023.46-.391.759-.713 1.564-1.012 2.393-.023.092-.138.368-.414.368h-2.509a3.618 3.618 0 0 0-3.612 3.613v5.568a3.62 3.62 0 0 0 3.612 3.613h2.463c.184 0 .322.092.368.23.299.897.667 1.795 1.104 2.669a.293.293 0 0 1-.092.345l-1.772 1.772a3.626 3.626 0 0 0 0 5.108l3.935 3.935a3.603 3.603 0 0 0 2.554 1.036c.967 0 1.887-.369 2.554-1.036l1.749-1.749a.327.327 0 0 1 .368-.092c.852.437 1.749.806 2.67 1.105.161.046.253.207.253.391v2.416a3.618 3.618 0 0 0 3.612 3.613h5.569a3.618 3.618 0 0 0 3.612-3.613v-2.416c0-.184.093-.345.254-.391.897-.299 1.794-.691 2.669-1.105.115-.046.253-.023.368.092l1.749 1.749a3.601 3.601 0 0 0 2.554 1.036c.966 0 1.887-.369 2.554-1.036l3.935-3.935a3.566 3.566 0 0 0 1.058-2.554c0-.966-.368-1.887-1.058-2.554l-1.772-1.772c-.092-.115-.138-.253-.092-.368.437-.874.805-1.749 1.104-2.669.046-.138.185-.23.369-.23h2.462a3.618 3.618 0 0 0 3.612-3.613v-5.568a3.618 3.618 0 0 0-3.612-3.613Zm-12.449 6.42c0 5.591-4.533 10.124-10.124 10.124-5.592 0-10.125-4.533-10.125-10.124 0-5.592 4.533-10.125 10.125-10.125 5.591 0 10.124 4.533 10.124 10.125Zm44.893-27.129h-1.725c-.184 0-.277-.184-.277-.254a11.198 11.198 0 0 0-.69-1.633.32.32 0 0 1 0-.322l1.243-1.243c.46-.46.736-1.104.736-1.749 0-.667-.253-1.288-.736-1.749l-2.716-2.715a2.49 2.49 0 0 0-1.748-.713c-.668 0-1.312.253-1.749.713l-1.266 1.266c-.092.115-.276.046-.322.023a14.305 14.305 0 0 0-1.633-.667c-.047-.024-.231-.093-.231-.277v-1.771a2.49 2.49 0 0 0-2.485-2.486h-3.819a2.476 2.476 0 0 0-2.486 2.486v1.771c0 .161-.184.253-.23.277-.552.184-1.104.414-1.633.69-.046.023-.207.092-.323-.023l-1.265-1.266a2.493 2.493 0 0 0-1.749-.713c-.667 0-1.312.253-1.749.713l-2.715 2.715c-.966.967-.966 2.532 0 3.521l1.243 1.243c.046.046.069.184.023.322a20.429 20.429 0 0 0-.691 1.633c-.023.07-.092.254-.276.254h-1.726a2.475 2.475 0 0 0-2.485 2.485v3.819a2.476 2.476 0 0 0 2.485 2.486h1.703c.115 0 .23.069.253.161.207.621.461 1.242.76 1.817.046.07.023.185-.046.254l-1.22 1.219a2.501 2.501 0 0 0 0 3.521l2.715 2.715c.461.46 1.105.713 1.749.713.667 0 1.312-.253 1.749-.713l1.196-1.197c.069-.069.185-.092.254-.046.598.3 1.196.553 1.817.76a.31.31 0 0 1 .184.276v1.657a2.476 2.476 0 0 0 2.486 2.485h3.819a2.49 2.49 0 0 0 2.485-2.485v-1.657c0-.138.069-.23.184-.276.622-.207 1.243-.46 1.818-.76.069-.046.184-.023.253.046l1.197 1.197c.46.46 1.104.713 1.749.713.667 0 1.311-.253 1.749-.713l2.715-2.715c.46-.46.736-1.105.736-1.749 0-.667-.253-1.289-.736-1.749l-1.22-1.219a.211.211 0 0 1-.046-.254c.299-.598.552-1.219.76-1.817.023-.092.138-.161.253-.161h1.702a2.476 2.476 0 0 0 2.486-2.486v-3.819c-.023-1.45-1.128-2.554-2.509-2.554Zm-8.536 4.395c0 3.842-3.13 6.949-6.95 6.949-3.842 0-6.949-3.13-6.949-6.949 0-3.843 3.13-6.95 6.949-6.95 3.82-.023 6.95 3.107 6.95 6.95Z" fill="url(#f)"/><defs><linearGradient id="d" x1="133.699" y1="153.613" x2="158.269" y2="152.225" gradientUnits="userSpaceOnUse"><stop stop-color="#5559CC"/><stop offset="1" stop-color="#E3E3F3"/></linearGradient><linearGradient id="e" x1="135.189" y1="184.113" x2="189.917" y2="180.911" gradientUnits="userSpaceOnUse"><stop stop-color="#5559CC"/><stop offset="1" stop-color="#E3E3F3"/></linearGradient><linearGradient id="f" x1="250.169" y1="312.241" x2="325.657" y2="305.558" gradientUnits="userSpaceOnUse"><stop stop-color="#5559CC"/><stop offset="1" stop-color="#E3E3F3"/></linearGradient><filter id="a" x="178.434" y="31.55" width="306.734" height="490.963" filterUnits="userSpaceOnUse" color-interpolation-filters="sRGB"><feFlood flood-opacity="0" result="BackgroundImageFix"/><feColorMatrix in="SourceAlpha" values="0 0 0 0 0 0 0 0 0 0 0 0 0 0 0 0 0 0 127 0" result="hardAlpha"/><feOffset/><feGaussianBlur stdDeviation="40"/><feComposite in2="hardAlpha" operator="out"/><feColorMatrix values="0 0 0 0 0.777767 0 0 0 0 0.797986 0 0 0 0 0.865384 0 0 0 0.4 0"/><feBlend in2="BackgroundImageFix" result="effect1_dropShadow_3146_176182"/><feBlend in="SourceGraphic" in2="effect1_dropShadow_3146_176182" result="shape"/></filter><filter id="b" x="113.961" y="137.227" width="264.574" height="264.575" filterUnits="userSpaceOnUse" color-interpolation-filters="sRGB"><feFlood flood-opacity="0" result="BackgroundImageFix"/><feColorMatrix in="SourceAlpha" values="0 0 0 0 0 0 0 0 0 0 0 0 0 0 0 0 0 0 127 0" result="hardAlpha"/><feOffset/><feGaussianBlur stdDeviation="16"/><feComposite in2="hardAlpha" operator="out"/><feColorMatrix values="0 0 0 0 0.886275 0 0 0 0 0.894118 0 0 0 0 0.945098 0 0 0 0.6 0"/><feBlend in2="BackgroundImageFix" result="effect1_dropShadow_3146_176182"/><feBlend in="SourceGraphic" in2="effect1_dropShadow_3146_176182" result="shape"/></filter><filter id="c" x="0" y="0" width="264.574" height="264.575" filterUnits="userSpaceOnUse" color-interpolation-filters="sRGB"><feFlood flood-opacity="0" result="BackgroundImageFix"/><feColorMatrix in="SourceAlpha" values="0 0 0 0 0 0 0 0 0 0 0 0 0 0 0 0 0 0 127 0" result="hardAlpha"/><feOffset/><feGaussianBlur stdDeviation="16"/><feComposite in2="hardAlpha" operator="out"/><feColorMatrix values="0 0 0 0 0.886275 0 0 0 0 0.894118 0 0 0 0 0.945098 0 0 0 0.6 0"/><feBlend in2="BackgroundImageFix" result="effect1_dropShadow_3146_176182"/><feBlend in="SourceGraphic" in2="effect1_dropShadow_3146_176182" result="shape"/></filter></defs></svg>

<svg width="486" height="523" viewBox="0 0 486 523" fill="none" xmlns="http://www.w3.org/2000/svg">
<g filter="url(#filter0_d_3146_176182)">
<path d="M261.35 442.512C301.062 436.882 337.431 417.173 363.829 386.974C390.226 356.775 404.896 318.098 405.165 277.989C405.435 237.88 391.285 199.009 365.295 168.459C339.305 137.909 303.204 117.712 263.571 111.55L260.378 132.082C295.089 137.479 326.706 155.167 349.469 181.923C372.231 208.679 384.623 242.722 384.387 277.849C384.151 312.977 371.304 346.851 348.184 373.299C325.065 399.747 293.214 417.009 258.433 421.939L261.35 442.512Z" fill="#E2E4F1"/>
</g>
<g filter="url(#filter1_d_3146_176182)">
<circle cx="246.249" cy="269.514" r="100.288" fill="white"/>
</g>
<g filter="url(#filter2_d_3146_176182)">
<circle cx="132.288" cy="132.288" r="100.288" fill="white"/>
</g>
<path d="M132.5 193C99.1502 193 72 165.872 72 132.5C72 99.1502 99.1282 72 132.5 72C165.85 72 193 99.1502 193 132.5C193 165.872 165.85 193 132.5 193ZM132.5 73.2311C99.8097 73.2311 73.2311 99.8317 73.2311 132.5C73.2311 165.19 99.8317 191.769 132.5 191.769C165.19 191.769 191.769 165.168 191.769 132.5C191.769 99.8098 165.19 73.2311 132.5 73.2311Z" fill="#E2E4F1"/>
<path d="M120.868 147.647H144.127C145.182 147.647 146.04 146.79 146.04 145.735V127.048C146.04 125.993 145.182 125.136 144.127 125.136H126.518V123.157C126.518 120.035 129.156 117.507 132.388 117.507C134.96 117.507 137.268 119.156 138.016 121.53C138.148 121.97 138.477 122.3 138.895 122.476C139.313 122.63 139.796 122.608 140.17 122.388L140.94 121.948C141.555 121.596 141.819 120.849 141.599 120.189C140.28 116.32 136.565 113.704 132.388 113.704C127.024 113.704 122.671 117.947 122.671 123.179V125.158H120.846C119.791 125.158 118.934 126.015 118.934 127.07V145.757C118.956 146.79 119.813 147.647 120.868 147.647ZM130.585 133.534C130.585 132.478 131.442 131.621 132.498 131.621C133.553 131.621 134.41 132.478 134.41 133.534V139.228C134.41 140.283 133.553 141.14 132.498 141.14C131.442 141.14 130.585 140.283 130.585 139.228V133.534Z" fill="url(#paint0_linear_3146_176182)"/>
<path d="M161.034 104.185C160.836 104.009 160.595 103.855 160.353 103.767L159.254 103.327C142.018 96.5784 123.002 96.5784 105.766 103.327L105.503 103.437C103.546 104.207 102.293 106.031 102.293 108.142V149.626C102.293 151.187 103.062 152.638 104.381 153.495L130.037 170.533C130.784 171.038 131.642 171.28 132.499 171.28C133.356 171.28 134.214 171.038 134.961 170.533L160.529 153.539C161.892 152.638 162.683 151.143 162.683 149.516V106.339C162.705 105.284 162.002 104.427 161.034 104.185ZM106.734 107.988C106.734 107.812 106.844 107.658 106.998 107.592C115.22 104.383 123.859 102.778 132.499 102.778C141.139 102.778 149.778 104.383 158 107.592L158.264 107.702V149.494C158.264 149.648 158.198 149.78 158.066 149.846L132.719 166.685C132.565 166.773 132.389 166.773 132.235 166.685L106.888 149.846C106.778 149.758 106.69 149.626 106.69 149.494V107.988H106.734Z" fill="url(#paint1_linear_3146_176182)"/>
<path d="M246.105 329.21C211.866 329.21 184 301.345 184 267.105C184 232.866 211.866 205 246.105 205C280.344 205 308.21 232.866 308.21 267.105C308.21 301.368 280.344 329.21 246.105 329.21ZM246.105 206.289C212.556 206.289 185.266 233.579 185.266 267.128C185.266 300.677 212.556 327.968 246.105 327.968C279.654 327.968 306.944 300.677 306.944 267.128C306.921 233.579 279.631 206.289 246.105 206.289Z" fill="#E2E4F1"/>
<path d="M253.307 267.933H250.799C250.523 267.933 250.407 267.657 250.384 267.565C250.108 266.759 249.763 265.954 249.395 265.195C249.303 265.034 249.326 264.827 249.418 264.735L251.236 262.917C251.926 262.226 252.294 261.329 252.294 260.363C252.294 259.396 251.926 258.476 251.236 257.808L247.301 253.874C246.634 253.206 245.713 252.838 244.747 252.838C243.78 252.838 242.86 253.206 242.193 253.874L240.352 255.714C240.191 255.875 239.961 255.76 239.892 255.737C239.132 255.369 238.327 255.024 237.499 254.748C237.407 254.725 237.153 254.61 237.153 254.357V251.78C237.153 249.778 235.52 248.167 233.541 248.167H227.972C225.97 248.167 224.36 249.801 224.36 251.78V254.357C224.36 254.61 224.107 254.725 224.015 254.748C223.209 255.024 222.404 255.369 221.644 255.737C221.575 255.76 221.345 255.875 221.184 255.714L219.343 253.874C218.676 253.206 217.756 252.838 216.789 252.838C215.823 252.838 214.902 253.229 214.235 253.874L210.3 257.808C208.897 259.212 208.897 261.513 210.3 262.917L212.118 264.735C212.21 264.827 212.233 265.011 212.141 265.195C211.75 265.954 211.428 266.759 211.129 267.588C211.106 267.68 210.991 267.956 210.715 267.956H208.206C206.204 267.956 204.594 269.59 204.594 271.569V277.137C204.594 279.139 206.228 280.75 208.206 280.75H210.669C210.853 280.75 210.991 280.842 211.037 280.98C211.336 281.877 211.704 282.775 212.141 283.649C212.187 283.764 212.164 283.902 212.049 283.994L210.277 285.766C208.874 287.17 208.874 289.471 210.277 290.874L214.212 294.809C214.879 295.476 215.8 295.845 216.766 295.845C217.733 295.845 218.653 295.476 219.32 294.809L221.069 293.06C221.161 292.945 221.322 292.922 221.437 292.968C222.289 293.405 223.186 293.774 224.107 294.073C224.268 294.119 224.36 294.28 224.36 294.464V296.88C224.36 298.882 225.993 300.493 227.972 300.493H233.541C235.543 300.493 237.153 298.859 237.153 296.88V294.464C237.153 294.28 237.246 294.119 237.407 294.073C238.304 293.774 239.201 293.382 240.076 292.968C240.191 292.922 240.329 292.945 240.444 293.06L242.193 294.809C242.86 295.476 243.78 295.845 244.747 295.845C245.713 295.845 246.634 295.476 247.301 294.809L251.236 290.874C251.926 290.184 252.294 289.287 252.294 288.32C252.294 287.354 251.926 286.433 251.236 285.766L249.464 283.994C249.372 283.879 249.326 283.741 249.372 283.626C249.809 282.752 250.177 281.877 250.476 280.957C250.522 280.819 250.661 280.727 250.845 280.727H253.307C255.309 280.727 256.919 279.093 256.919 277.114V271.546C256.919 269.567 255.309 267.933 253.307 267.933ZM240.858 274.353C240.858 279.944 236.325 284.477 230.734 284.477C225.142 284.477 220.609 279.944 220.609 274.353C220.609 268.761 225.142 264.228 230.734 264.228C236.325 264.228 240.858 268.761 240.858 274.353ZM285.751 247.224H284.026C283.842 247.224 283.749 247.04 283.749 246.97C283.565 246.418 283.335 245.866 283.059 245.337C282.99 245.222 283.013 245.084 283.059 245.015L284.302 243.772C284.762 243.312 285.038 242.668 285.038 242.023C285.038 241.356 284.785 240.735 284.302 240.274L281.586 237.559C281.126 237.099 280.482 236.846 279.838 236.846C279.17 236.846 278.526 237.099 278.089 237.559L276.823 238.825C276.731 238.94 276.547 238.871 276.501 238.848C275.972 238.595 275.42 238.365 274.868 238.181C274.821 238.157 274.637 238.088 274.637 237.904V236.133C274.637 234.752 273.51 233.647 272.152 233.647H268.333C266.952 233.647 265.847 234.752 265.847 236.133V237.904C265.847 238.065 265.663 238.157 265.617 238.181C265.065 238.365 264.513 238.595 263.984 238.871C263.938 238.894 263.777 238.963 263.661 238.848L262.396 237.582C261.936 237.122 261.291 236.869 260.647 236.869C259.98 236.869 259.335 237.122 258.898 237.582L256.183 240.297C255.217 241.264 255.217 242.829 256.183 243.818L257.426 245.061C257.472 245.107 257.495 245.245 257.449 245.383C257.196 245.912 256.965 246.464 256.758 247.016C256.735 247.086 256.666 247.27 256.482 247.27H254.756C253.376 247.27 252.271 248.374 252.271 249.755V253.574C252.271 254.955 253.376 256.06 254.756 256.06H256.459C256.574 256.06 256.689 256.129 256.712 256.221C256.919 256.842 257.173 257.463 257.472 258.038C257.518 258.108 257.495 258.223 257.426 258.292L256.206 259.511C255.24 260.478 255.24 262.065 256.206 263.032L258.921 265.747C259.382 266.207 260.026 266.46 260.67 266.46C261.337 266.46 261.982 266.207 262.419 265.747L263.615 264.55C263.684 264.481 263.8 264.458 263.869 264.504C264.467 264.804 265.065 265.057 265.686 265.264C265.778 265.31 265.87 265.402 265.87 265.54V267.197C265.87 268.577 266.975 269.682 268.356 269.682H272.175C273.533 269.682 274.66 268.577 274.66 267.197V265.54C274.66 265.402 274.729 265.31 274.844 265.264C275.466 265.057 276.087 264.804 276.662 264.504C276.731 264.458 276.846 264.481 276.915 264.55L278.112 265.747C278.572 266.207 279.216 266.46 279.861 266.46C280.528 266.46 281.172 266.207 281.61 265.747L284.325 263.032C284.785 262.572 285.061 261.927 285.061 261.283C285.061 260.616 284.808 259.994 284.325 259.534L283.105 258.315C283.036 258.246 283.013 258.154 283.059 258.061C283.358 257.463 283.611 256.842 283.819 256.244C283.842 256.152 283.957 256.083 284.072 256.083H285.774C287.155 256.083 288.26 254.978 288.26 253.597V249.778C288.237 248.328 287.132 247.224 285.751 247.224ZM277.215 251.619C277.215 255.461 274.085 258.568 270.265 258.568C266.423 258.568 263.316 255.438 263.316 251.619C263.316 247.776 266.446 244.669 270.265 244.669C274.085 244.646 277.215 247.776 277.215 251.619Z" fill="url(#paint2_linear_3146_176182)"/>
<defs>
<filter id="filter0_d_3146_176182" x="178.434" y="31.5498" width="306.734" height="490.963" filterUnits="userSpaceOnUse" color-interpolation-filters="sRGB">
<feFlood flood-opacity="0" result="BackgroundImageFix"/>
<feColorMatrix in="SourceAlpha" type="matrix" values="0 0 0 0 0 0 0 0 0 0 0 0 0 0 0 0 0 0 127 0" result="hardAlpha"/>
<feOffset/>
<feGaussianBlur stdDeviation="40"/>
<feComposite in2="hardAlpha" operator="out"/>
<feColorMatrix type="matrix" values="0 0 0 0 0.777767 0 0 0 0 0.797986 0 0 0 0 0.865384 0 0 0 0.4 0"/>
<feBlend mode="normal" in2="BackgroundImageFix" result="effect1_dropShadow_3146_176182"/>
<feBlend mode="normal" in="SourceGraphic" in2="effect1_dropShadow_3146_176182" result="shape"/>
</filter>
<filter id="filter1_d_3146_176182" x="113.961" y="137.227" width="264.574" height="264.575" filterUnits="userSpaceOnUse" color-interpolation-filters="sRGB">
<feFlood flood-opacity="0" result="BackgroundImageFix"/>
<feColorMatrix in="SourceAlpha" type="matrix" values="0 0 0 0 0 0 0 0 0 0 0 0 0 0 0 0 0 0 127 0" result="hardAlpha"/>
<feOffset/>
<feGaussianBlur stdDeviation="16"/>
<feComposite in2="hardAlpha" operator="out"/>
<feColorMatrix type="matrix" values="0 0 0 0 0.886275 0 0 0 0 0.894118 0 0 0 0 0.945098 0 0 0 0.6 0"/>
<feBlend mode="normal" in2="BackgroundImageFix" result="effect1_dropShadow_3146_176182"/>
<feBlend mode="normal" in="SourceGraphic" in2="effect1_dropShadow_3146_176182" result="shape"/>
</filter>
<filter id="filter2_d_3146_176182" x="0" y="0" width="264.574" height="264.575" filterUnits="userSpaceOnUse" color-interpolation-filters="sRGB">
<feFlood flood-opacity="0" result="BackgroundImageFix"/>
<feColorMatrix in="SourceAlpha" type="matrix" values="0 0 0 0 0 0 0 0 0 0 0 0 0 0 0 0 0 0 127 0" result="hardAlpha"/>
<feOffset/>
<feGaussianBlur stdDeviation="16"/>
<feComposite in2="hardAlpha" operator="out"/>
<feColorMatrix type="matrix" values="0 0 0 0 0.886275 0 0 0 0 0.894118 0 0 0 0 0.945098 0 0 0 0.6 0"/>
<feBlend mode="normal" in2="BackgroundImageFix" result="effect1_dropShadow_3146_176182"/>
<feBlend mode="normal" in="SourceGraphic" in2="effect1_dropShadow_3146_176182" result="shape"/>
</filter>
<linearGradient id="paint0_linear_3146_176182" x1="133.699" y1="153.613" x2="158.269" y2="152.225" gradientUnits="userSpaceOnUse">
<stop stop-color="#5559CC"/>
<stop offset="1" stop-color="#E3E3F3"/>
</linearGradient>
<linearGradient id="paint1_linear_3146_176182" x1="135.189" y1="184.113" x2="189.917" y2="180.911" gradientUnits="userSpaceOnUse">
<stop stop-color="#5559CC"/>
<stop offset="1" stop-color="#E3E3F3"/>
</linearGradient>
<linearGradient id="paint2_linear_3146_176182" x1="250.169" y1="312.241" x2="325.657" y2="305.558" gradientUnits="userSpaceOnUse">
<stop stop-color="#5559CC"/>
<stop offset="1" stop-color="#E3E3F3"/>
</linearGradient>
</defs>
</svg>
